X:1
T:E JE KA JO YO ...
T:E JÉ KÁ JO YÒ ...
T:Words and Music by David Aina (1988)
T:CHRIST APOSTOLIC CHURCH  PALACE OF GLORY AND VIRTUE,  EBUTE, IKORODU, LAGOS (2019)
Z:Words and Music by David Aina (1988))
%%score [ 1 ( 2 3 ) ]
L:1/8
Q:1/4=80
M:4/4
K:G
V:1 treble nm="S\nA"
V:2 bass nm="T\nB"
V:3 bass 
V:1
"^Highlife Tempo (with syncopation)" [Bd]2 [ce] [Bd]2 [GB][DG][=FB] | [EA] [=FB]2 [EG]2 [CE]3 | %2
w: E je ka jo yo ka|fi jo si o.|
 [EA]2 [Gc] [FA]2 [DF]DD | [DF]2 [Fc][DB]- [DB]4 | [DB]2 [Ec] [Ec]2 [Gd][DG][=FB] | %5
w: A bi O- lu- gba- la|kan fun wa.- *|E yin o- ni- gba- gbo|
 [EA] [=FB]2 [EG]2 [CE]3 | [EA]2 [Gc] [Gc]2 [DF] [FA]2 | [DG]2 [DG][DG]- [DG]4 || %8
w: e- ho e yo|A bi Je- su O-|lu- gba- la.- *|
S"^Refrain" [DF]2 [FA] [FA]2 [DF] D2 | [DG]2 [DG] [GB]2 [GB]3 | [GB]2 [Gd] [Gd]2 [EG][EB][FA] | %11
w: A wa ki o o|O- ba mi- mo.|A wa ju- ba fun o|
 [FA]2 [FA] [EG]2 [FA]3 | [DB]2 [Ec] [Ec]2 [Gd][DG][=FB] | [EA] [=FB]2 [EG]2 [CE]3 | %14
w: O- ba o- go|E yin o- ni- gba- gbo|e ho e yo|
 [EA]2 [Gc] [Gc]2 [DF] [FA]2 | [DG]2 [DG][DG]- [DG]4!fine! ||"^Sopranos" B2 c c2 dGB | %17
w: A bi Je su O|lu gba- la *|I jo ba yo wa ni|
 G2 G(B G) E3 | F2 A A2 A A2 | G2 B B2 B3 | B2 cd A A2 B | B2 G A2 E3 | z A2 c c2 F2 | %23
w: e ji ka * re,|O- hun ni O ba|A won O ba,|O un yo jo- ba ti|ti Ai- ye o,|A la- de a-|
 A2 AG- G4!D.S.! ||"^Tenors and Basses." B2 c c2 Bcd | BG(GA) E3 z | c2 c F2 F F2 | G2 BB- B4 | %28
w: la- fi- a. *|A- won A- mo- ye me-|ta I gba- * ni,|Won ri I ra wo|kan di dan- *|
 G2 G G2 d A2 | B G2 B E3 z | z cAB F2 AG | G2 G G2 BBB!D.S.! |] %32
w: I ra wo yi ni|won to le- hin|la- ti ju ba fun O|ba tun tun. Won wi- pe|
V:2
 z8 | z8 | [C,G,]2 [E,C] [D,C]2 [D,A,][D,A,][D,F,] | [D,A,]2 [D,A,][G,,G,]- [G,,G,]4 | z8 | z8 | %6
w: ||||||
 [C,G,]2 [E,C] [E,C]2 [A,,A,] [D,C]2 | [G,,B,]2 [G,,B,][G,,B,]- [G,,B,]4 || A,2 C A,2 CCA, | %9
w: |||
 [G,,G,]2 [D,B,] [G,D]2 [G,D]3 | [G,D]2 [B,,B,] [E,B,]2 [G,,D] [A,,^C]2 | %11
w: O- ba mi- mo.|A wa ju- ba Re|
 [D,D]2 [D,D] [A,,^C]2 [D,D]3 | (([G,D]4 [G,,B,]2) [B,,G,]2 | [C,G,]6) z2 | %14
w: O- ba o- go|Ah _ _|_|
 [C,G,]2 [E,C] [E,C]2 [A,,A,] [D,C]2 | [G,,B,]2 [G,,B,][G,,B,]- [G,,B,]4 || z8 | z8 | z8 | z8 | %20
w: ||||||
 z8 | z8 | z8 | z8 || z8 | z8 | z8 | z8 | z8 | z8 | z8 | z8 |] %32
w: ||||||||||||
V:3
 x8 | x8 | x8 | x8 | x8 | x8 | x8 | x8 || z3 D,2 D,D,D, | x8 | x8 | x8 | x8 | x8 | x8 | x8 || x8 | %17
w: ||||||||A wa ki o|||||||||
 x8 | x8 | x8 | x8 | x8 | x8 | x8 || x8 | x8 | x8 | x8 | x8 | x8 | x8 | x8 |] %32
w: |||||||||||||||

